icons/24x24_filter_outline.svg

<svg xmlns="http://www.w3.org/2000/svg" width="24" height="24" viewBox="0 0 24 24">
  <path fill-rule="evenodd" d="M19,7.17070571 C20.1651924,7.58254212 21,8.69378117 21,10 C21,11.3062188 20.1651924,12.4174579 19,12.8292943 L19,19 C19,19.5522847 18.5522847,20 18,20 C17.4477153,20 17,19.5522847 17,19 L17,12.8292943 C15.8348076,12.4174579 15,11.3062188 15,10 C15,8.69378117 15.8348076,7.58254212 17,7.17070571 L17,5 C17,4.44771525 17.4477153,4 18,4 C18.5522847,4 19,4.44771525 19,5 L19,7.17070571 Z M15,15 C15,16.3062188 14.1651924,17.4174579 13,17.8292943 L13,19 C13,19.5522847 12.5522847,20 12,20 C11.4477153,20 11,19.5522847 11,19 L11,17.8292943 C9.83480763,17.4174579 9,16.3062188 9,15 C9,13.6937812 9.83480763,12.5825421 11,12.1707057 L11,5 C11,4.44771525 11.4477153,4 12,4 C12.5522847,4 13,4.44771525 13,5 L13,12.1707057 C14.1651924,12.5825421 15,13.6937812 15,15 Z M7,7.17070571 C8.16519237,7.58254212 9,8.69378117 9,10 C9,11.3062188 8.16519237,12.4174579 7,12.8292943 L7,19 C7,19.5522847 6.55228475,20 6,20 C5.44771525,20 5,19.5522847 5,19 L5,12.8292943 C3.83480763,12.4174579 3,11.3062188 3,10 C3,8.69378117 3.83480763,7.58254212 5,7.17070571 L5,5 C5,4.44771525 5.44771525,4 6,4 C6.55228475,4 7,4.44771525 7,5 L7,7.17070571 Z M6,11 C6.55228475,11 7,10.5522847 7,10 C7,9.44771525 6.55228475,9 6,9 C5.44771525,9 5,9.44771525 5,10 C5,10.5522847 5.44771525,11 6,11 Z M18,11 C18.5522847,11 19,10.5522847 19,10 C19,9.44771525 18.5522847,9 18,9 C17.4477153,9 17,9.44771525 17,10 C17,10.5522847 17.4477153,11 18,11 Z M12,16 C12.5522847,16 13,15.5522847 13,15 C13,14.4477153 12.5522847,14 12,14 C11.4477153,14 11,14.4477153 11,15 C11,15.5522847 11.4477153,16 12,16 Z"/>
</svg>

<svg width="24" height="24" fill="none" xmlns="http://www.w3.org/2000/svg"><path fill-rule="evenodd" clip-rule="evenodd" d="M19 7.17a3.001 3.001 0 0 1 0 5.66V19a1 1 0 1 1-2 0v-6.17a3.001 3.001 0 0 1 0-5.66V5a1 1 0 1 1 2 0v2.17ZM15 15a3.001 3.001 0 0 1-2 2.83V19a1 1 0 1 1-2 0v-1.17a3.001 3.001 0 0 1 0-5.66V5a1 1 0 1 1 2 0v7.17c1.165.412 2 1.524 2 2.83ZM7 7.17a3.001 3.001 0 0 1 0 5.66V19a1 1 0 1 1-2 0v-6.17a3.001 3.001 0 0 1 0-5.66V5a1 1 0 0 1 2 0v2.17ZM6 11a1 1 0 1 0 0-2 1 1 0 0 0 0 2Zm12 0a1 1 0 1 0 0-2 1 1 0 0 0 0 2Zm-6 5a1 1 0 1 0 0-2 1 1 0 0 0 0 2Z" fill="#000"/></svg>
